X:1
T: Iphigenia in Aulis 
T:Ch. W. Gluck
T:Contrabass
T: Overture 
L:1/8
Q:1/4=92
M:4/4
K:C
V:1 bass nm="Part_1"
V:1
 z8 | z8 | z8 | z8 | z8 | z8 | z8 | z8 |"^Vcl" z2 G,2 (D4 | D2) C_B, A,2 G,2 | z8 | z8 | z8 | z8 | %14
 z8 | z8 | z8 | z8 | z4 z2 z/ G,,/!ff!B,,/C,/ |"^A" C,6 z/ G,,/A,,/B,,/ | C,6 C,2 | %21
 .D,.C,.F,.E, .D,.C,.B,,.C, | D,6 C,2 | .D,.C,.F,.E, .D,.C,.B,,.C, | D,6 E,2 | %25
 .F,.E,.A,.G, .F,.E,.D,.E, | F,6!ff! E,2 | A,3 F, B,3 G, | C2 C,C, C,2 z2 | C2 C,C, C,C,C,C, | %30
 G,2 G,,G,, G,,2 z2 | G,2 G,,G,, G,,G,,G,,G,, | C2 C,C, C,2 !>!C, z | %33
 !>!D, z !>!E, z !>!F, z !>!G, z | !>!A,2 z2 z4 | z4 z2 !>!C, z | !>!D, z !>!E, z !>!F, z !>!G, | %37
 A,2 z2 z4 | z4 C,2 z2 | z8 | z8 | z8 | z8 | z8 | z8 | z8 | z8 | z8 | z4 z2 z/ D,/!ff!E,/^F,/ | %49
 G,6 z/ D,/E,/F,/ | G,6 B,2 | .C.B,.E.D .C.B,.A,.B, | C6 B,2 | .C.B,.E.D .C.B,.A,.B, | C6 D2 | %55
 .E.D.G.^F .E.D.C.D | E6 E2 |!ff! DD,D,D, DD,D,D, | DD,D,D, DD,D,D, | DD,D,D, DD,D,D, | %60
 DD,D,D, DD,D,D, |"^C" D,4 z4 | z8 | z8 | z8 | z8 | z8 | z8 | z8 | z8 | z8 | G,2 G,2 ^F,2 =F,2 | %72
 E,4 z4 | z8 | z8 | z8 | z8 | z8 | z8 | z8 | z8 | z8 |"^Fag." (D4 A,4) | (_B,4 A,4) | %84
 (^G,4 G,2) z/!ff! E,/=F,/^G,/ | A,6 z/ E,/F,/^G,/ | A,6 G,2 | .F,.G,.A,.G, .F,.D,.E,.F, | %88
 G,6 z F, | .E,.F,.G,F, .E,.D,.C,.E, | F,6 z E, | .D,.E,.F,.E, .D,.C,._B,,.D, | E,6 z D, | %93
 .^C,.D,.E,.D, .C,.B,,.A,,.C, |"^D" !//!D,4 !//!D,4 | !//!D,4 !//!D,4 | !//!C,4 !//!C,4 | %97
 !//!C,4 !//!C,4 | !//!F,,4 !//!F,,4 | !//!F,,4 !//!F,,4 | !//!F,,4 F,,2 z2 | z8 | z8 | z8 | z8 | %105
 z8 | z8 | z8 | z8 | z8 | z4 z2 z/!ff! G,,/A,,/B,,/ | C,6 z/ G,,/A,,/B,,/ | C,6 E,2 | %113
 F,E,A,G, F,E,D,E, | F,6 E,2 | F,E,A,G, F,E,D,E, | F,6 G,2 | A,G,CB, A,G,F,G, | A,6"^E\n" B,2 | %119
!ff! C2 C,C, C,2 z2 |!ff! C2 C,C, C,C,C,C, | G,2 G,,G,, G,,2 z2 | G,2 G,,G,, G,,G,,G,,G,, | %123
 C2 C,C, C,2 !>!C, z | !>!D, z !>!E, z !>!F, z !>!G, z | !>!A,2 z2 z4 | z4 z2 !>!C, z | %127
 !>!D, z !>!E, z !>!F, z !>!G, z | !>!A,2 z2 z4 | z4 C,2 z2 | z8 | z8 | z8 | z8 | z8 | z8 | z8 | %137
 z8 | z8 | z4 z2 z/ D,/!ff!E,/^F,/ | G,6 z/ D,/E,/^F,/ | G,6 B,2 | CB,ED CB,A,B, | C6 B,2 | %144
 CB,ED CB,A,B, | C6 D2 | EDG^F EDCD | E6 E2 |!ff! DD,D,D, DD,D,D, | DD,D,D, DD,D,D, | %150
 DD,D,D, DD,D,D, | DD,D,D, DD,D,D, | D,4 z4 | z8 | z8 | z8 | z8 | z8 | z8 | z8 | z8 | z8 | z8 | %163
 z8 | z8 | z8 | z8 |"^G" G,G,,G,,G,, G,G,,G,,G,, | G,G,,G,,G,, G,G,,G,,G,, | %169
 G,G,,G,,G,, G,G,,G,,G,, | G,G,,G,,G,, G,G,,G,,G,, | G,4 z4 | z8 | z8 | z8 | z8 | z8 | z8 | %178
 z4 z2 z/ G,,/!ff!A,,/B,,/ |"^H" C,6 z/ G,,/A,,/B,,/ | C,6 C,2 | .D,.C,.F,.E, .D,.C,.B,,.C, | %182
 D,6 C,2 | .D,.C,.F,.E, .D,.C,.B,,.C, | D,6 E,2 | .F,.E,.A,.G, .F,.E,.D,.E, | .F,2 z2 .^F,2 z z | %187
 .G,2 z2 z4 | z8 | z8 | z8 | z8 | z8 | z8 | z8 | z8 | z8 | z8 | z2!p! (vC,2 (G,4 | %199
 G,2) uF,_E, D,2 C,2 | (v=B,,4 (C,4) | C,2) u_B,,_A,, G,,2 F,,2 | v=E,,4 F,,2 G,,2 | u_A,,8 | %204
 G,,8) | (C,8 | C,6) z/ .G,,/!p!.A,,/.B,,/ | (C,8 | C,6) z/ .G,,/.A,,/.B,,/ | %209
 C,6 z/ .G,,/.A,,/.B,,/ | C,6 z/ .G,,/.A,,/.B,,/ | (C,8 | C,6) z/ .G,,/.A,,/.B,,/ | %213
 C,4 z2 z/ .G,,/!pp!.A,,/.B,,/ | C,4 z2 z/ .G,,/.A,,/.B,,/ | C,4 z2 z/ .G,,/.A,,/.B,,/ | %216
 C,2 z2 z2 z/ .G,,/.A,,/.B,,/ | C,2 z2 z4 |] %218

